X:7
T:MacLeod's Farewell
R:reel
C:Donald Shaw
O:20 century Scotland
H:apparently written in E major
D:i.Seamus Butler, The Luck Penny,ii. Lunasa, Merry Sisters of Fate 
N:circulating as "The Wedding Reel", without composer credit
S:Clare FM
Z:psc -  http://www.cranfordpub.com
L:1/8
Q:333
M:C|
K:D
DE|F2 BF AFEF|D/D/D DE FABd|e2 fd efed|B2 eB dBAG|
F2 BF AFEF|D2 DE FABd|edfd efdB|ABde d2:|
|:dB|A/A/A  fd edfd|A/A/A fd efed|B2 dA BdAB|dBAF EDB,D|
F2 BF AFEF|D2 DE FABd|edfd efdB|ABde d2:|
